!!!!SEGMENT: pl-cz--i-37--002_jarecki-jozef--requiem-dies-irae.krn
!!!cenid: 18xx:847
!!!COM: Jarecki, Józef
!!!COM-rismID: pe41001558
!!!CDT: 1818/08/02-1871/12/23
!!!CNT: Polish
!!!OPR: Requiem
!!!OTL: Dies irae
!!!OMV: 002
!!!PDT:
!!!AGN: Sacred; Requiem
!!!SMS-siglum: PL-CZ
!!!SMS-shelfmark: I-37
!!!SMS-shelfwork: 001-002 M
!!!SMS-variant:
!!!SMS-altvar:
!!!NIFC-rismSourceID: 300000525
!!!NIFC-rismChildID: 300000525
!!!NIFC-islandoraID: pl-cz:31603
!!!URL-pdf-islandora: https://repozytorium.nifc.pl/islandora/object/pl-cz%3A31603/datastream/PDF/view
!!!URL-scan: https://polish.musicsources.pl/pl/lokalizacje/galeria/rekopisy/6730/1 @EN{Scan on Polish Music Sources Website} @PL{Skany w portalu Dziedzictwo Muzyki Polskiej w otwartym dostępie}
!!!ONB-nifc: UWAGA: części Requiem: Requiem, Dies irae, Domine Jesu Christe, Sanctus, Benedictus, Agnus, Lux aeterna
!!!AIN: 1 bass 1 organ 2 tenor
!!!key:
**kern	**kern	**kern	**text	**dynam	**kern	**text	**kern	**text
*part4	*part4	*part3	*part3	*part3	*part2	*part2	*part1	*part1
*staff5	*staff4	*staff3	*staff3	*staff3	*staff2	*staff2	*staff1	*staff1
*Iorgan	*Iempty	*Ibass	*	*	*Itenor	*	*Itenor	*
*I"Organo	*	*I"Basso	*	*	*I"Tenore II	*	*I"Tenore I	*
*I'org	*	*I'B	*	*	*I'T 2	*	*I'T 1	*
*clefF4	*clefG2	*clefF4	*	*	*clefG2	*	*clefG2	*
*k[b-e-a-]	*k[b-e-a-]	*k[b-e-a-]	*	*	*k[b-e-a-]	*	*k[b-e-a-]	*
*c:	*c:	*c:	*	*	*c:	*	*c:	*
*M3/4	*M3/4	*M3/4	*	*	*M3/4	*	*M3/4	*
=1	=1	=1	=1	=1	=1	=1	=1	=1
!	!LO:SIC:o:s=:v:instrument towarzyszący głosom nienazwany	!	!	!	!	!	!LO:TX:a:B:i:t=Allegro con fuoco	!
8.C\L	8.c/L	2.r	.	.	2.r	.	2.r	.
16D\Jk	16d/Jk	.	.	.	.	.	.	.
16E-\LL	16e-/LL	.	.	.	.	.	.	.
16D\	16d/	.	.	.	.	.	.	.
16E-\	16e-/	.	.	.	.	.	.	.
16F\JJ	16f/JJ	.	.	.	.	.	.	.
8G\L	8g/L	.	.	.	.	.	.	.
8GG\J 8G\	8g/J 8bn/	.	.	.	.	.	.	.
=2	=2	=2	=2	=2	=2	=2	=2	=2
4C\ 4c\	4e-/ 4g/ 4cc/	4r	.	.	4r	.	4r	.
4C\ 4c\	4e-/ 4g/ 4cc/	4C/	.	.	4e-/	.	4cc\	Di-
4C\ 4c\	4g/ 4cc/ 4ee-/	4C/	.	.	4g/	.	4ee-\	-es
=3	=3	=3	=3	=3	=3	=3	=3	=3
4.FF/ 4.F/	4.f/ 4.a-/ 4.ee-/	4.F\	.	.	4.a-/	.	4.ee-\	i-
8FF/L 8F/	8f/L 8a-/ 8dd/	8F\	.	.	8a-/	.	8dd\	-rae
8GG/ 8G/	8e-/ 8g/ 8cc/	8G\	.	.	8g/	.	8cc\	di-
8GG/J 8G/	8d/J 8g/ 8bn/	8G\	.	.	8f/	.	8bn\	-es
=4	=4	=4	=4	=4	=4	=4	=4	=4
4C\ 4c\	4f/ 4a-/ 4ee-/	4c\	.	.	4e-/	.	4cc\	il-
8C\L 8c\	8e-\L 8g\ 8cc\	4C/	.	.	4e-/	.	4cc\	-la
8c\ 8e-\ 8g\	8gg\J	.	.	.	.	.	.	.
8c\ 8e-\ 8g\	16ff\LL	4r	.	.	4r	.	4r	.
.	16ee-\	.	.	.	.	.	.	.
8c\J 8e-\ 8g\	16dd\	.	.	.	.	.	.	.
.	16cc\JJ	.	.	.	.	.	.	.
=5	=5	=5	=5	=5	=5	=5	=5	=5
8G\L 8d\ 8f\	4bn/	4r	.	.	4r	.	4r	.
8G\J	.	.	.	.	.	.	.	.
8G\L	4d/ 4g/ 4b/	4G\	.	.	4g/	.	4bn\	sol-
8G\	.	.	.	.	.	.	.	.
!	!	!	!	!LO:DY:b	!	!	!	!
8F\	4d/ 4g/ 4b/	4F\	.	f	4g/	.	4b\	-vet
8F\J	.	.	.	.	.	.	.	.
=6	=6	=6	=6	=6	=6	=6	=6	=6
8.E-\L	8.g/L 8.cc/	8.E-\L	sae-	.	4r	.	8.cc\L	sae-
16D\Jk	16g/Jk 16bn/ 16dd/	16D\Jk	.	.	.	.	16dd\Jk	.
8C\L	8g/L 8cc/ 8ee-/	4C/	-clum	.	4g/	sae-	4ee-\	-clum
8c\ 8e-\ 8g\	8gg/J	.	.	.	.	.	.	.
8c\ 8e-\ 8g\	16ff/LL	4r	.	.	4g/	-clum	4r	.
.	16ee-/	.	.	.	.	.	.	.
8c\J 8e-\ 8g\	16dd/	.	.	.	.	.	.	.
.	16cc/JJ	.	.	.	.	.	.	.
=7	=7	=7	=7	=7	=7	=7	=7	=7
8G\L 8d\ 8f\	4bn\	4r	.	.	4r	.	4r	.
8GG\J 8G\	.	.	.	.	.	.	.	.
8G\L	4d/ 4g/ 4b/	4G\	.	.	4g/	.	4bn\	in
8G\	.	.	.	.	.	.	.	.
8F\	4d/ 4g/ 4b/	4F\	.	.	4g/	.	4b\	fan
8F\J	.	.	.	.	.	.	.	.
=8	=8	=8	=8	=8	=8	=8	=8	=8
8.E-\L	8.g/L 8.cc/	8.E-\L	.	.	4g/	.	8.cc\L	vil-
16D\Jk	16g/Jk 16bn/ 16dd/	16D\Jk	.	.	.	.	16dd\Jk	.
4C/	4g\ 4cc\ 4ee-\	4C/	.	.	4g/	.	4ee-\	-la
8C\L 8c\	8cc\L	8c\	.	.	8cc\	.	8cc\	tes-
8C\J 8c\	8cc\J	8c\	.	.	8cc\	.	8cc\	-te
=9	=9	=9	=9	=9	=9	=9	=9	=9
4.AA-/ 4.A-/	4.d/ 4.f#X/ 4.cc/	4.A-\	.	.	4.cc\	.	4.ee-\	Da-
8AA-\L 8A-\	8d/ 8f#/ 8cc/	8A-\	.	.	8cc\	.	8ee-\	-vid
8AA-\ 8A-\	8d/L 8f#/ 8cc/	8A-\	.	.	8cc\	.	8ee-\	cum
8AA-\J 8A-\	8d/J 8f#/ 8cc/	8A-\	.	.	8cc\	.	8ee-\	Sy-
=10	=10	=10	=10	=10	=10	=10	=10	=10
4GG/ 4G/	4d/ 4g/ 4bn/	4G\	.	.	4bn\	.	4dd\	-bil-
4GG/ 4G/	4d/ 4g/ 4b/	4G\	.	.	4b\	.	4dd\	-la
8.GG/L 8.G/	8.Bn/L 8.d/	4r	.	.	4r	.	4r	.
16GG/Jk 16G/	16B/Jk 16d/	.	.	.	.	.	.	.
!!LO:LB:g=original
=11	=11	=11	=11	=11	=11	=11	=11	=11
4GG/ 4G/	4Bn/ 4d/ 4g/	2.r	.	.	2.r	.	2.r	.
*tremolo	*	*	*	*	*	*	*	*
12EE-/ 12E-/L	4r	.	.	.	.	.	.	.
12EE-/ 12E-/	.	.	.	.	.	.	.	.
12EE-/ 12E-/J	.	.	.	.	.	.	.	.
12EE-/ 12E-/L	4r	.	.	.	.	.	.	.
12EE-/ 12E-/	.	.	.	.	.	.	.	.
12EE-/ 12E-/J	.	.	.	.	.	.	.	.
=12	=12	=12	=12	=12	=12	=12	=12	=12
12EE-/ 12E-/L	4r	4r	.	.	4r	.	4r	.
12EE-/ 12E-/	.	.	.	.	.	.	.	.
12EE-/ 12E-/J	.	.	.	.	.	.	.	.
12EE-/ 12E-/L	4g/ 4b-/	4E-\	.	.	4g/	.	4b-/	Quan-
12EE-/ 12E-/	.	.	.	.	.	.	.	.
12EE-/ 12E-/J	.	.	.	.	.	.	.	.
12EE-/ 12E-/L	4g/ 4b-/	4E-\	.	.	4g/	.	4b-/	-tus
12EE-/ 12E-/	.	.	.	.	.	.	.	.
12EE-/ 12E-/J	.	.	.	.	.	.	.	.
=13	=13	=13	=13	=13	=13	=13	=13	=13
12EE-/ 12E-/L	4g/ 4b-/	4E-\	.	.	4g/	.	4b-/	tre-
12EE-/ 12E-/	.	.	.	.	.	.	.	.
12EE-/ 12E-/J	.	.	.	.	.	.	.	.
12EE-/ 12E-/L	4e-/ 4g/	4E-\	.	.	4e-/	.	4g/	-mor
12EE-/ 12E-/	.	.	.	.	.	.	.	.
12EE-/ 12E-/J	.	.	.	.	.	.	.	.
12EE-/ 12E-/L	4r	4r	.	.	4r	.	4r	.
12EE-/ 12E-/	.	.	.	.	.	.	.	.
12EE-/ 12E-/J	.	.	.	.	.	.	.	.
=14	=14	=14	=14	=14	=14	=14	=14	=14
12EE-/ 12E-/L	4r	4r	.	.	4r	.	4r	.
12EE-/ 12E-/	.	.	.	.	.	.	.	.
12EE-/ 12E-/J	.	.	.	.	.	.	.	.
12EE-/ 12E-/L	4g/ 4b-/	4E-\	.	.	4g/	.	4b-/	est
12EE-/ 12E-/	.	.	.	.	.	.	.	.
12EE-/ 12E-/J	.	.	.	.	.	.	.	.
12EE-/ 12E-/L	4g/ 4b-/	4E-\	.	.	4g/	.	4b-/	fu-
12EE-/ 12E-/	.	.	.	.	.	.	.	.
12EE-/ 12E-/J	.	.	.	.	.	.	.	.
=15	=15	=15	=15	=15	=15	=15	=15	=15
12EE-/ 12E-/L	4g/ 4b-/	4E-\	.	.	4g/	.	4b-/	-tu-
12EE-/ 12E-/	.	.	.	.	.	.	.	.
12EE-/ 12E-/J	.	.	.	.	.	.	.	.
12EE-/ 12E-/L	4e-/ 4g/	4E-\	.	.	4e-/	.	4g/	-rus
12EE-/ 12E-/	.	.	.	.	.	.	.	.
12EE-/ 12E-/J	.	.	.	.	.	.	.	.
12EE-/ 12E-/L	4r	4r	.	.	4r	.	4r	.
12EE-/ 12E-/	.	.	.	.	.	.	.	.
12EE-/ 12E-/J	.	.	.	.	.	.	.	.
=16	=16	=16	=16	=16	=16	=16	=16	=16
12BB-/L	4r	4r	.	.	4r	.	4r	.
12BB-/	.	.	.	.	.	.	.	.
12BB-/J	.	.	.	.	.	.	.	.
*Xtremolo	*	*	*	*	*	*	*	*
8BB-\L 8B-\	4f/ 4b-/ 4dd/	8B-\	.	.	8b-\	.	8dd\	quan-
8BB-\ 8B-\	.	8B-\	.	.	8b-\	.	8dd\	-do
8AA-\ 8A-\	4f/ 4b-/ 4dd/	8A-\	.	.	8b-\	.	8dd\	ju-
8AA-\J 8A-\	.	8A-\	.	.	8b-\	.	8dd\	-dex
=17	=17	=17	=17	=17	=17	=17	=17	=17
*	*^	*	*	*	*	*	*	*
2G\	2b-/ 2ee-/	2e-/	4.G\	.	.	4.b-\	.	4.ee-\	est
.	.	.	8G\	.	.	8b-\	.	8ee-\	ven-
4G\	8ee-/L	4e-\ 4b-\	4G\	.	.	4b-\	.	(8ee-\L	-tu-
.	8dd-X/J	.	.	.	.	.	.	8dd-X\J)	.
*	*v	*v	*	*	*	*	*	*	*
=18	=18	=18	=18	=18	=18	=18	=18	=18
4AA-/ 4A-/	4f/ 4a-/ 4cc/	4A-\	.	.	4a-/	.	4cc\	-rus
4AAn/ 4An/	4e-/ 4f#X/ 4cc/	8An\	.	.	8an\	.	8cc\	cun-
.	.	8A\	.	.	8a\	.	8cc\	-cta
4AA/ 4A/	4e-/ 4f#/ 4cc/	8A\	.	.	8a\	.	8cc\	stric-
.	.	8A\	.	.	8a\	.	8cc\	-te
=19	=19	=19	=19	=19	=19	=19	=19	=19
*	*^	*	*	*	*	*	*	*
2.BB-\ 2.B-\	2b-/	2g\	2B-\	.	.	2b-\	.	2b-\	dis-
.	4ee-\	4ryy	4B-\	.	.	4b-\	.	4ee-\	-cus
=20	=20	=20	=20	=20	=20	=20	=20	=20	=20
2.BB-/	2e-/ 2g/	2B-/	2.BB-/	.	.	2b-/	.	(2gg\	su-
.	4d/ 4f/	8B-\L	.	.	.	4a-/	.	4ff\)	.
.	.	8A-\J	.	.	.	.	.	.	.
*	*v	*v	*	*	*	*	*	*	*
=21	=21	=21	=21	=21	=21	=21	=21	=21
4E-\	4G/ 4B-/ 4e-/	4E-\	rus	.	4g/	.	4ee-\	-rus
8E-\L	8e-/L	8E-\	Tu-	.	4r	.	4r	.
8D\	8d/	8D\	-ba	.	.	.	.	.
8E-\	8e-/	8E-\	mi-	.	4r	.	4r	.
8G\J	8g/J	8G\	-rum	.	.	.	.	.
=22	=22	=22	=22	=22	=22	=22	=22	=22
2B-\	2b-/	2B-\	spar-	.	2.r	.	2.r	.
8G\L	8g/L	8G\L	-gens	.	.	.	.	.
8E-\J	8e-/J	8E-\J	.	.	.	.	.	.
!!LO:LB:g=original
=23	=23	=23	=23	=23	=23	=23	=23	=23
4BB-\	4B-/	4BB-/	so-	.	4r	.	4r	.
4B-\	4f/ 4a-/	4BB-/	-num	.	4f/	.	4a-/	spar-
4B-\	4f/ 4a-/	4r	.	.	4f/	.	4a-/	-gens
=24	=24	=24	=24	=24	=24	=24	=24	=24
4E-\	8f/L 8a-/	4r	.	.	(8f/L	.	(8a-/L	so-
.	8e-/J 8g/	.	.	.	8e-/J)	.	8g/J)	.
8E-\L	8e-/L 8g/	8E-\	per	.	4e-/	.	4g/	-num
8D\	8d/	8D\	se-	.	.	.	.	.
8E-\	8e-/	8E-\	-pul-	.	4r	.	4r	.
8G\J	8g/J	8G\	-chra	.	.	.	.	.
=25	=25	=25	=25	=25	=25	=25	=25	=25
2B-\	2b-\	2B-\	re-	.	2.r	.	2.r	.
8G\L	8g/L	(8G\L	-gi-	.	.	.	.	.
8E-\J	8e-/J	8E-\J)	.	.	.	.	.	.
=26	=26	=26	=26	=26	=26	=26	=26	=26
4BB-/	4c/	4BB-/	-o-	.	4r	.	4r	.
4B-\	4f/ 4a-/	4BB-/	-num	.	4f/	.	4a-/	re-
4B-\	4f/ 4a-/	4r	.	.	4f/	.	4a-/	-gi
=27	=27	=27	=27	=27	=27	=27	=27	=27
4E-\	8f/L 8a-/	2r	.	.	(8f/L	.	(8a-/L	o-
.	8e-/J 8g/	.	.	.	8e-/J)	.	8g/J)	.
4E-\	4e-/ 4a-/	.	.	.	4e-/	.	4g/	-num
8B-\L	8b-/L	8B-\	co-	.	8b-\	.	8b-/	co-
8B-\J	8b-/J	8B-\	-get	.	8b-\	.	8b-/	-get
=28	=28	=28	=28	=28	=28	=28	=28	=28
!	!LO:SIC:o=:v: takt nieczytelny	!	!	!	!	!	!	!
2EE-/	2b-\ 2ee-\	4.E-\	.	.	4.g/	.	4.ee-\	om-
.	.	8E-\	.	.	8g/	.	8ee-\	-nes
4r	4b-\ 4dd\ 4ff\	8B-\	.	.	8b-\	.	8ff\	an-
.	.	8B-\	.	.	8b-\	.	8ff\	-te
=29	=29	=29	=29	=29	=29	=29	=29	=29
4E-\ 4e-\	4b-\ 4ee-\ 4gg\	4E-\	.	.	4b-/	.	4gg\	tro-
4EE-/ 4E-/	4g/ 4b-/ 4ee-/	4E-\	.	.	4g/	.	4ee-\	-num
4r	4r	4r	.	.	4r	.	4r	.
=30	=30	=30	=30	=30	=30	=30	=30	=30
4r	4r	4r	.	.	4r	.	4r	.
4FF/ 4G/	4e-/ 4b-/	4G\	.	.	4b-\	.	4b-\	pi-
4GG/ 4E-/	4e-/ 4b-/	4G\	.	.	4b-\	.	4b-\	-e
=31	=31	=31	=31	=31	=31	=31	=31	=31
2AA-\ 2A-\	2e-/ 2a-/ 2cc/	2A-\	.	.	2a-/	.	2cc\	Je-
4GG/ 4G/	4B-/ 4e-/ 4b-/	4G\	.	.	4b-\	.	4b-\	-su
=32	=32	=32	=32	=32	=32	=32	=32	=32
2FF/ 2F/	2c/ 2e-/ 2an/	4.F\	.	.	4.cc\	.	4.an/	Do-
.	.	8F\	.	.	8cc\	.	8a/	-mi-
4FF/ 4F/	4c/ 4e-/ 4a/	4F\	.	.	4cc\	.	4a/	-ne
=33	=33	=33	=33	=33	=33	=33	=33	=33
4BB-/	2.d/ 2.f/ 2.a-X/	4r	.	.	4r	.	4r	.
2BBn/	.	4BBn/	.	.	4dd\	.	4a-X/	do-
.	.	4BB/	.	.	4dd\	.	4a-/	-ne
=34	=34	=34	=34	=34	=34	=34	=34	=34
2C/	2c/ 2e-/ 2a-/	2C/	.	.	2ee-\	.	2g/	e-
4AA-/ 4A-/	4c/ 4f/	4AA-/	.	.	4cc\	.	4f/	-is
=35	=35	=35	=35	=35	=35	=35	=35	=35
2BB-/	2B-/ 2d/	2BB-/	.	.	2b-/	.	2g/	re-
4BB-\ 4F\	4B-/ 4d/	4BB-/	.	.	4a-/	.	4f/	-qui-
=36	=36	=36	=36	=36	=36	=36	=36	=36
4EE-/ 4E-/	4G/ 4B-/ 4e-/	4E-\	.	.	4g/	.	4e-/	-em
4r	4r	4G\	.	.	4g/	.	4g/	A-
4r	4r	4G\	.	.	4g/	.	4g/	-men
=37	=37	=37	=37	=37	=37	=37	=37	=37
4C\ 4c\	4g\ 4cc\ 4ee-\	2C/	.	.	(2g/	.	(2ee-\	A-
4r	4r	.	.	.	.	.	.	.
4GG\ 4G\	4g\ 4bn\ 4dd\	4GG/	.	.	4f/)	.	4dd\)	.
=38	=38	=38	=38	=38	=38	=38	=38	=38
*	*	*	*	*	*^	*	*	*
4CC/ 4C/	4e-/ 4g/ 4cc/	4C/	.	.	4g/ 4e-/	4e-\	.	4cc\	-men
4CC/ 4C/	4c/	4r	.	.	2r	2ryy	.	4r	.
4CC/ 4C/	4c/	4r	.	.	.	.	.	4r	.
*	*	*	*	*	*v	*v	*	*	*
=39	=39	=39	=39	=39	=39	=39	=39	=39
2CC/ 2C/	2c/	2.r	.	.	2.r	.	2.r	.
4r	4r	.	.	.	.	.	.	.
==	==	==	==	==	==	==	==	==
*-	*-	*-	*-	*-	*-	*-	*-	*-
!!!system-decoration: s1,s2,s3{(s4,s5)}
!!!RDF**kern: > = above
!!!RDF**kern: < = below
!!!ENC: Tomasz Grochalski
!!!END: 2020-07-21
!!!EED: Leszek Kubiak
!!!EEV: 2020-09-24
!!!YEC: Copyright 2022 Narodowy Instytut Fryderyka Chopina (https://polishscores.org)
!!!YEM: License CC-BY-4.0 (https://creativecommons.org/licenses/by/4.0)
